svgs/light/person-biking-mountain.svg

<svg xmlns="http://www.w3.org/2000/svg" viewBox="0 0 640 512"><!--! Font Awesome Pro 6.0.0-alpha3 by @fontawesome - https://fontawesome.com License - https://fontawesome.com/license (Commercial License) --><path d="M156.7 202.1c3.051 3.729 12.1 9.982 21.75 2.25l104.3-88.88c6.375-5.5 7-15.5 1.375-22.38C268.2 73.93 245.6 63.97 223.3 63.97c-17.12 0-34.12 5.85-47.95 17.89L117.2 130.6c-6.375 5.625-7 15.5-1.375 22.38L156.7 202.1zM196.4 105.1c9.52-8.287 19.9-10.03 26.94-10.03c8.678 0 17.14 2.564 24.5 7.234L170.7 168.9L150.4 144.5L196.4 105.1zM384 128c35.35 0 64-28.65 64-64c0-35.35-28.65-64-64-64s-64 28.65-64 64C320 99.35 348.7 128 384 128zM384 32c17.64 0 32 14.36 32 32s-14.36 32-32 32s-32-14.36-32-32S366.4 32 384 32zM250.7 222.6L311.9 171.6c5.375-4.547 13.27-4.938 19.11-1.031l76.13 50.75C409.8 223.1 412.8 224 416 224h64c8.844 0 16-7.156 16-16S488.8 192 480 192h-59.16l-72.09-48.06C331.2 132.2 307.6 133.5 291.4 147L230.2 197.1C222.4 204.5 218.2 214.1 218.8 224.3c.5469 10.19 5.719 19.27 14.2 24.94L304 296.6V416c0 8.844 7.156 16 16 16s16-7.156 16-16V288c0-5.344-2.672-10.34-7.125-13.31L250.7 222.6zM624 352h-5.25c-2.125-7.25-5-14.25-8.625-20.88l3.75-3.625c6.25-6.25 6.25-16.5 0-22.75l-22.62-22.62C588.1 279 584 277.4 579.9 277.4S571.6 279 568.5 282.1l-3.625 3.75C558.3 282.3 551.3 279.4 544 277.3V272C544 263.1 536.9 256 528 256h-32C487.1 256 480 263.1 480 272v5.25c-7.25 2.125-14.25 5-20.88 8.625L455.5 282.1c-3.125-3.125-7.219-4.688-11.31-4.688S435.1 279 432.9 282.1l-22.6 22.62c-6.25 6.25-6.25 16.5 0 22.75l3.625 3.625C410.3 337.8 407.4 344.8 405.3 352H400c-8.875 0-16 7.125-16 16v32c0 8.875 7.125 16 16 16h5.25c2.125 7.25 5 14.25 8.625 20.88l-3.75 3.625c-6.25 6.25-6.25 16.5 0 22.75l22.62 22.62C435.9 489 440 490.6 444.1 490.6s8.225-1.562 11.35-4.688l3.65-3.75C465.8 485.8 472.8 488.6 480 490.8V496c0 8.875 7.125 16 16 16h32c8.875 0 16-7.125 16-16v-5.25c7.25-2.125 14.25-5 20.88-8.625l3.75 3.75c3.125 3.125 7.219 4.688 11.31 4.688s8.188-1.562 11.31-4.688l22.62-22.62c6.25-6.25 6.25-16.5 0-22.75l-3.75-3.625C613.8 430.3 616.6 423.3 618.8 416H624c8.875 0 16-7.125 16-16v-32C640 359.1 632.9 352 624 352zM512 472c-48.6 0-88-39.4-88-88S463.4 296 512 296s88 39.4 88 88S560.6 472 512 472zM240 352H234.8c-2.125-7.25-5-14.25-8.625-20.88l3.75-3.625c6.25-6.25 6.25-16.5 0-22.75L207.3 282.1C204.1 279 200 277.4 195.9 277.4S187.6 279 184.5 282.1L180.9 285.9C174.3 282.3 167.3 279.4 160 277.3V272C160 263.1 152.9 256 144 256h-32C103.1 256 96 263.1 96 272v5.25c-7.25 2.125-14.25 5-20.88 8.625L71.5 282.1C68.38 279 64.25 277.4 60.16 277.4S51.9 279 48.78 282.1L26.15 304.8c-6.25 6.25-6.25 16.5 0 22.75l3.725 3.625C26.25 337.8 23.37 344.8 21.25 352H16C7.125 352 0 359.1 0 368v32C0 408.9 7.125 416 16 416h5.25c2.125 7.25 5 14.25 8.625 20.88L26.12 440.5c-6.25 6.25-6.25 16.5 0 22.75l22.63 22.62C51.88 489 56 490.6 60.13 490.6s8.225-1.562 11.35-4.688l3.65-3.75C81.75 485.8 88.75 488.6 96 490.8V496C96 504.9 103.1 512 112 512h32C152.9 512 160 504.9 160 496v-5.25c7.25-2.125 14.25-5 20.88-8.625l3.675 3.75c3.125 3.125 7.262 4.688 11.36 4.688s8.219-1.562 11.34-4.688l22.62-22.62c6.25-6.25 6.25-16.5 0-22.75l-3.75-3.625C229.8 430.3 232.6 423.3 234.8 416H240C248.9 416 256 408.9 256 400v-32C256 359.1 248.9 352 240 352zM128 472c-48.6 0-88-39.4-88-88S79.4 296 128 296S216 335.4 216 384S176.6 472 128 472zM512 360c-13.25 0-24 10.74-24 24c0 13.25 10.75 24 24 24c13.26 0 24-10.75 24-24C536 370.7 525.3 360 512 360zM128 360c-13.25 0-24 10.74-24 24c0 13.25 10.75 24 24 24c13.26 0 24-10.75 24-24C152 370.7 141.3 360 128 360z"/></svg>

<svg xmlns="http://www.w3.org/2000/svg" viewBox="0 0 640 512"><!-- Font Awesome Pro 6.0.0-alpha2 by @fontawesome - https://fontawesome.com License - https://fontawesome.com/license (Commercial License) --><path d="M156.719 202.111C159.77 205.84 169.715 212.094 178.469 204.361L282.719 115.486C289.094 109.986 289.719 99.986 284.094 93.111C268.172 73.934 245.637 63.971 223.297 63.971C206.176 63.971 189.176 69.82 175.344 81.861L117.219 130.611C110.844 136.236 110.219 146.111 115.844 152.986L156.719 202.111ZM196.355 105.996C205.875 97.709 216.26 95.971 223.297 95.971C231.975 95.971 240.439 98.535 247.801 103.205L170.727 168.916L150.428 144.521L196.355 105.996ZM384 128C419.346 128 448 99.346 448 64C448 28.652 419.346 0 384 0S320 28.652 320 64C320 99.346 348.654 128 384 128ZM384 32C401.645 32 416 46.355 416 64S401.645 96 384 96S352 81.645 352 64S366.355 32 384 32ZM250.719 222.578L311.891 171.594C317.266 167.047 325.156 166.656 331 170.562L407.125 221.312C409.75 223.062 412.844 224 416 224H480C488.844 224 496 216.844 496 208S488.844 192 480 192H420.844L348.75 143.938C331.188 132.188 307.625 133.469 291.391 147L230.234 197.984C222.406 204.5 218.219 214.078 218.75 224.266C219.297 234.453 224.469 243.531 232.953 249.203L304 296.562V416C304 424.844 311.156 432 320 432S336 424.844 336 416V288C336 282.656 333.328 277.656 328.875 274.688L250.719 222.578ZM624 352H618.75C616.625 344.75 613.75 337.75 610.125 331.125L613.875 327.5C620.125 321.25 620.125 311 613.875 304.75L591.25 282.125C588.125 279 584 277.438 579.875 277.438S571.625 279 568.5 282.125L564.875 285.875C558.25 282.25 551.25 279.375 544 277.25V272C544 263.125 536.875 256 528 256H496C487.125 256 480 263.125 480 272V277.25C472.75 279.375 465.75 282.25 459.125 285.875L455.5 282.125C452.375 279 448.281 277.437 444.188 277.437S436 279 432.875 282.125L410.25 304.75C404 311 404 321.25 410.25 327.5L413.875 331.125C410.25 337.75 407.375 344.75 405.25 352H400C391.125 352 384 359.125 384 368V400C384 408.875 391.125 416 400 416H405.25C407.375 423.25 410.25 430.25 413.875 436.875L410.125 440.5C403.875 446.75 403.875 457 410.125 463.25L432.75 485.875C435.875 489 440 490.562 444.125 490.562S452.375 489 455.5 485.875L459.125 482.125C465.75 485.75 472.75 488.625 480 490.75V496C480 504.875 487.125 512 496 512H528C536.875 512 544 504.875 544 496V490.75C551.25 488.625 558.25 485.75 564.875 482.125L568.625 485.875C571.75 489 575.844 490.563 579.938 490.563S588.125 489 591.25 485.875L613.875 463.25C620.125 457 620.125 446.75 613.875 440.5L610.125 436.875C613.75 430.25 616.625 423.25 618.75 416H624C632.875 416 640 408.875 640 400V368C640 359.125 632.875 352 624 352ZM512 472C463.398 472 424 432.602 424 384S463.398 296 512 296S600 335.398 600 384S560.602 472 512 472ZM240 352H234.75C232.625 344.75 229.75 337.75 226.125 331.125L229.875 327.5C236.125 321.25 236.125 311 229.875 304.75L207.25 282.125C204.125 279 200 277.438 195.875 277.438S187.625 279 184.5 282.125L180.875 285.875C174.25 282.25 167.25 279.375 160 277.25V272C160 263.125 152.875 256 144 256H112C103.125 256 96 263.125 96 272V277.25C88.75 279.375 81.75 282.25 75.125 285.875L71.5 282.125C68.375 279 64.281 277.438 60.188 277.438S52 279 48.875 282.125L26.25 304.75C20 311 20 321.25 26.25 327.5L29.875 331.125C26.25 337.75 23.375 344.75 21.25 352H16C7.125 352 0 359.125 0 368V400C0 408.875 7.125 416 16 416H21.25C23.375 423.25 26.25 430.25 29.875 436.875L26.125 440.5C19.875 446.75 19.875 457 26.125 463.25L48.75 485.875C51.875 489 56 490.562 60.125 490.562S68.375 489 71.5 485.875L75.125 482.125C81.75 485.75 88.75 488.625 96 490.75V496C96 504.875 103.125 512 112 512H144C152.875 512 160 504.875 160 496V490.75C167.25 488.625 174.25 485.75 180.875 482.125L184.625 485.875C187.75 489 191.844 490.563 195.938 490.563S204.125 489 207.25 485.875L229.875 463.25C236.125 457 236.125 446.75 229.875 440.5L226.125 436.875C229.75 430.25 232.625 423.25 234.75 416H240C248.875 416 256 408.875 256 400V368C256 359.125 248.875 352 240 352ZM128 472C79.398 472 40 432.602 40 384S79.398 296 128 296S216 335.398 216 384S176.602 472 128 472ZM512 360C498.746 360 488 370.744 488 384C488 397.254 498.746 408 512 408C525.256 408 536 397.254 536 384C536 370.744 525.256 360 512 360ZM128 360C114.746 360 104 370.744 104 384C104 397.254 114.746 408 128 408C141.256 408 152 397.254 152 384C152 370.744 141.256 360 128 360Z"/></svg>
